X:13020
T:Mourisque, La
T:Basse danse 5
R:March
C:Tielman Susato 1551
O:Flemish
M:4/4
L:1/4
Q:1/4=180
K:G
"G"B/ c/ d d e|d3 c|B G "Em"G A|"Am7"F>E "D"D2|"G"B/ c/ d d e|d3 c|B/A/ "D"G A F|"G"G3 A:|
|:"G"B G G A|B G "C"c A|"G"B G "Em"G A|"Am"F>E "D7"D2|"G"B G G A|B G "C"c A|"G"B/A/ "D"G A F|"G"G4:|

